X: 142
T: Ayrılık Ümitlerin Ötesinde...
C: Avni Anıl
O: Turkey
F: http://compmusic.upf.edu/node/140
N: huzzam--sarki--curcuna--ayrilik_umitlerin--avni_anil
N: makam= huzzam
N: form= sarki
N: usul= curcuna = 10/8
M: 10/8
L: 1/16
K: C _1/4B _3/4e ^3/4f 
Q: 1/4=180
%%MIDI tuningsystem comma53
z4 g4 g2g8-g2  | f8 =e2g8-g2  | z4 g2g4g4g6  | \
w:  Ay rı lık   |   |  ü mit le rin   | 
z4 g2g4g4b6  | ^a2b2 c'2c'2 b2b2 =a2a4z2  | 
w:  ö te sin de   |   | 
_b4 a2g4f2 g2f2 _7/8e2_2/4ed  | d16-d4  | B16-B4  | \
w:  bir  *  *  *  *  *  *  şe  |  hir    |  SAZ  | 
b6b4f4f6  | d2c2 _2/4e3d c2c2 B2B6  | 
w:   |   | 
z4 g4 g2g8-g2  | f8 =e2g8-g2  | z4 g2g4g4g6  | \
w:  Ay rı lık   |   |  ü mit le rin   | 
z4 g2g4g4b6  | ^a2b2 c'2c'2 b2b2 =a2a4z2  | 
w:  ö te sin de   |   | 
_b4 a2g4f2 g2f2 _7/8e2_2/4ed  | d16-d4  | B16-B4  | \
w:  bir  *  *  *  *  *  *  şe  |  hir    |  SAZ  | 
b6b4f4f6  | f2_2/4e2 d2g4f2 e2d6  | 
w:   |   | 
z4 f2g4g4z6  | z4 f2g4g2 g4 z4  | z4 f2g4a2 a2g2 f4  | c'16-c'4  | \
w:  Ne  bir  kuş   |  ne  bir  ha ber   |  ne  de  bir   |   | 
b2c'2 d'2c'2 b2b2 a2a2 g2gf  | 
w:  se lam  *  *  *  *  *  *  *  ge  | 
f16-f4  | z4 B2B4B4z6  | z4 B2B4B2 B4 z4  | \
w:  lir    |  Ne  bir  kuş   |  ne  bir  ha ber   | 
z4 B2B4c2 d2B6  | g2f2 a2g2 f2_2/4e2 f2d4z2  | 
w:  ne  de  bir   |   | 
_1/4e2f8d2 e2d2 c2cB  | B16-B4  | B16-B4  | \
w:  se lam   |  lir    |  SAZ  | 
b6b4f4f6  | g4 ^a2b2 c'2b2 a2b4z2  | 
w:   |   | 
b6b4b4f6  | d4 _2/4e2d2 c2c2 B2B6  | \
w:  Ça re siz   |   | 
z4 b4 b2b4c'4(3b^ab  | d'4 d'4 b2c'2 d'2b4z2  | 
w:  ses le niş ler   |   | 
c'2b2 d'2c'2 b2b2 a2c'2 b2a2  | a2g2 _b2a2 g2g8z2  | \
w:  bey *  hû *  *  de   |   | 
g6g4f2 g2a2 a2g2  | 
w:  bek le yiş  | 
f18z2  | a4 g2g4g4g3f=e2  | =e4 f2g2 a2_b2 b2a2 g4  | \
w:  ler    |  Bir  *  te sel li   |  *  ye ri *  ne   | 
f2_2/4e2 f2g2 a2f2 e2d6  | 
w:   | 
z4 g2g4g4g6  | gfga g6gf gag6  | a4 _b2a2 g2f2 g2f2 _2/4e2e_1/4d  | 
w:  hü zün lü   |   |  ak şam  *  *  *  *  *  *  ge  | 
d16-d4  | B16-B4  | b6b4f4f6  | f2_2/4e2 d2g4f2 e2d6  | \
w:  lir    |  SAZ  |   |   | 
z4 f2g4g4z6  | z4 f2g4g2 g4 z4  | 
w:  Ne  bir  kuş   |  ne  bir  ha ber   | 
z4 f2g4a2 a2g2 f4  | c'16-c'4  | b2c'2 d'2c'2 b2b2 a2a2 g2gf  | f16-f4  | 
w:  ne  de  bir   |   |  se lam  *  *  *  *  *  *  *  ge  |  lir    | 
z4 B2B4B4z6  | z4 B2B4B2 B4 z4  | z4 B2B4c2 d2B6  | \
w:  Ne  bir  kuş   |  ne  bir  ha ber   |  ne  de  bir   | 
g2f2 a2g2 f2_2/4e2 f2d4z2  | 
w:   | 
_1/4e2f8d2 e2d2 c2cB  | B16-B4  | |


